X:1
T:Adagio (voice 1 only, full)
M:C
L:1/16
Q:1/4=42
K:Cm
c6gc=B4 z2G2|f6_ag edc2 z2a2|a4-agab g2ba gdeB|
g2ba gdeB _d6cB|A2cB A=EFC _e6=dc|B2g^f g2cB c2=ag a2dc|
B6dG ^F4z2D2|c6_ed B3=AA3G|G4 _d2d2 dcc2 c2c2|
cBB2 f2bf _g4-gefg|=Ae_dc c3B B2fe =d=ABF|d2fe d=ABF _a6gf|
e2gf e=BcG e2gf e=BcG|^f4zdgf gGcd d3c|c4zde=f g4-gfga|
